X: 41236
T: Troy's Wedding
R: jig
M: 6/8
K: Amixolydian
|:AAA d2c|BBB e2d|cAA ABc|dcd f2d|
AAA d2c|BBB e2d|caa ged|ABc d3:|
|:gee ege|fdd dfd|ecA ABc|dcd f2d|
[1gee ege|fdB A2d|caa gee|ABc d3:|
[2BGG Bcd|Add f2d|caa gee|ABc d3|
|:Aaa Bac|aad aea|faa gec|dcd f2d|
Aaa Bac|aad aea|faa gec|ABc d3:|
Acc cee|Add dff|ecA ABc|dcd f2d|
AAA cAA|dBd fed|caa gec|ABc d3|
AcA ecA|dfd afd|ecA ABc|dcd f2d|
BGG Bcd|Add f2d|caa gee|ABc d3|

